X:90
T:Showman's Fancy, The
R:hornpipe
D:James Morrison (1936)
D:Humdingers: Live in Oslo
Z:id:hn-hornpipe-90
M:C|
K:D
FG|AGAB Adfd|B2gf edcB|AGAB AFDF|~E3D E2FG|
AGAB Adfd|B2gf edcB|Adfa gecd|eddc d2:|
|:cd|edef gece|dcde fdA2|(3gag (3fgf (3efe (3ded|(3cdc (3BcB A2 FG|
AGAB Adfd|B2gf edcB|Adfa gecd|eddc d2:|
